!!!OTL: Der kleine Husar (2-40), S. 108
!!!id: K1124
**kern
*clefG2
*k[b-]
*F:
{8c
=1
8f
8f
8f
8a
8g
8f
=2
8g
8g
8g
8b-
8a}
=3
{8g
=4
8cc
8cc
8cc
8cc
8b-
8a
=5
4.g}
4r
=6
{8g
=7
8dd
8dd
8dd
8dd
8cc
8dd
=8
8cc
8cc
8cc
4a}
=9
{8cc
=10
8cc
8cc
8b-
4cc
8b-
=11
4a
8b-
4cc}
=12
{8cc
=13
8dd
8dd
8dd
8dd
8cc
8dd
=14
8cc
8cc
8cc
4a}
=15
{8cc
=16
8cc
8cc
8b-
4cc
8b-
=17
4.a}
4r
==
*-
!!!minrhy: 8
!!!meters: 6/8 ]  ZZ[6
!!!cut: Der kleine Husar (2-40), S. 108
!!!reg: Luxemburg
!!!trd: KINTZELE, Guillaume: An der Ucht, Bd. 2, Luxemburg 1927
!!!rhy1: X  XXXXXX  XXXXX
!!!rhy2: X  XXXXXX  X_.0_
!!!key: K1124  08  F 6/8 ]  ZZ[6
!!!mod: SECHSTONSKALA DUR ?]  AMBITUS[9
!!!kad: 323533
!!!akz: 1324_552_6653_5535_6653_553_
!!!fot: 'a__b__c__bw_cv_bw_
!!!for: 'a__aw_aw_b__aw_bw_
!!!fok: '~a_^__^a_V__\__\__
!! PHRAS[AUFTAKTIG]
!!!fkt: Standesunterschied, Scherzlied
!! KINTZELE
!! PR[47] 2K[0] 2G[12] 3K[14] 3G[0] 4A[1] 4Ü[0] 5A[0] 6K[0] 6G[0]
!! 7K[0] 7G[0] 8A[0] MEHR[0] SI[26] ABS[102] SR[12] SP[15]
!! ST[29] 2k[0] 2g[13] 3k[14] 3g[0] 4d[0] 4ü[0] 5d[0] 6k[0] 6g[0]
!! 7k[0] 7g[0] 8d[0] mehr[0] si[26] dm[0] sr[13] sp[14]
!! 1F[19] 2F[63] 3F[17] 4F[0] LF[0] 2P[2] 3P[0] 4P[0] TRI[0] DF[4] AB[107]
!! TF[0] U3K[0] U3[0] U4[0] U4Ü[0] U5[0] U6K[0] U6[0] U7K[0] U7[0]
!! N1[20] N2K[0] N2[0] N3K[51] N3[0] N4[28] N4Ü[0] N5[0] N6K[0] N6[0]
!!!n7k: 0] N7[0] O1[0] O2K[0] O2[0] O3K[0] O3[0] HÖ[0
